static/img/chainfusion/benefits-4.svg

<svg width="24" height="24" viewBox="0 0 24 24" fill="none" xmlns="http://www.w3.org/2000/svg">
<g id="shield-keyhole-fill">
<path id="Vector" d="M12.5 1L20.7169 2.82598C21.1745 2.92766 21.5 3.33347 21.5 3.80217V13.7889C21.5 15.795 20.4974 17.6684 18.8282 18.7812L12.5 23L6.1718 18.7812C4.50261 17.6684 3.5 15.795 3.5 13.7889V3.80217C3.5 3.33347 3.82553 2.92766 4.28307 2.82598L12.5 1ZM12.5 7C11.3954 7 10.5 7.89543 10.5 9C10.5 9.74025 10.9022 10.3866 11.4999 10.7324L11.5 15H13.5L13.5011 10.7318C14.0983 10.3858 14.5 9.73984 14.5 9C14.5 7.89543 13.6046 7 12.5 7Z" fill="white" fill-opacity="0.6"/>
</g>
</svg>

<svg xmlns="http://www.w3.org/2000/svg" width="24" height="24" fill="none" viewBox="0 0 24 24"><path fill="#fff" fill-opacity=".6" d="m12.5 1 8.217 1.826a1 1 0 0 1 .783.976v9.987a6 6 0 0 1-2.672 4.992L12.5 23l-6.328-4.219A6 6 0 0 1 3.5 13.79V3.802a1 1 0 0 1 .783-.976L12.5 1Zm0 6a2 2 0 0 0-1 3.732V15h2l.001-4.268A2 2 0 0 0 12.5 7Z"/></svg>
